X:0924
T:Le Petit Bossu.
M:6/8
L:1/8
Q:3/8=112
I: :: :|
Z:Jack Campin * www.campin.me.uk * 2009
K:G
            {DEF}GDG B2G|c2A BAG |FDF A2F|A2F D2
 (3(D/E/F/)|     GDG B2G|c2A BAG |EFG AGF|G3  G3:|
           {GABc}dBd g2d|ece g2 e|dBd gdB|AAA A3
   {GABc}  |     dBd g2d|ece g>fe|dcB AGF|G3  G3:|

